X: 21211
T: THE DOCTOR -- Strathspey
R: strathspey
B: K\"ohler's Violin Repository, v.2, 1885 p.121 #1
F: http://www.archive.org/details/klersviolinrepos02rugg
Z: 2012 John Chambers <jc:trillian.mit.edu>
M: C|
L: 1/8
K: Bb
|:\
vB<G(F>E) (D>C)B,>d | ecfd c/c/c {dcB}c2 |\
(c/B/A/G/) (F>E) {E}D>CB,d | ecfd B/B/B {cBA}B2 :|
v(B>f)(d>f) (B>f)(d>f) | (e>g)(d>f) c/c/c {dcB}c2 |\
(B>f)(d>f) (B>f)(d>f) | (e>g)(f>d) B/B/B {cBA} B2 |
(B>f)(d>f) (B>f)(d>f) | (e>g)(d>f) c/c/c {dc=B}c2(ga |\
b>g) (a>f) (g>e) (f>d) | (e>c)(f>d) "^Segue Reel."B/B/B {cBA} B2 "_D.C."|]

%%sep 2 1 500

